assets/images/denied-transaction-hand.svg

<svg width="119" height="192" viewBox="0 0 119 192" fill="none" xmlns="http://www.w3.org/2000/svg">
<g clip-path="url(#clip0_257_9177)">
<path d="M1.84041 171.363C1.84041 171.363 2.21708 155.587 4.57708 152.787C4.57708 152.787 -2.64959 140.4 6.20041 125.21C6.20041 125.21 11.2137 119.46 13.5737 117.69C15.9337 115.92 23.3071 110.023 26.6971 105.303C30.0904 100.583 37.0204 94.3899 45.1304 99.2565C53.2404 104.123 48.3737 116.363 46.4571 118.427C44.5404 120.49 41.0004 124.03 39.2304 124.917C37.4604 125.8 29.3504 129.783 30.8237 136.27C30.8237 136.27 35.6904 143.79 36.1337 148.657H81.1104C81.1104 148.657 75.9504 158.537 66.5104 160.897C57.0737 163.257 49.4037 163.55 49.4037 163.55L48.3704 170.187C48.3704 170.187 33.0337 175.937 18.7304 174.317C4.42708 172.693 1.83708 171.363 1.83708 171.363H1.84041Z" fill="#F68DFE"/>
<path d="M96.5938 85.6867V101.613C96.5938 101.613 104.41 104.417 108.244 104.12C112.077 103.827 118.714 100.14 118.124 92.47C117.534 84.8033 109.424 84.2133 106.62 84.5067C103.817 84.8 98.8038 86.72 96.5938 85.6867Z" fill="#F68DFE"/>
<path d="M96.5938 101.613V104.417C96.5938 104.417 93.4971 104.563 91.1371 104.27C88.7771 103.977 83.7638 101.617 79.6338 101.91C75.5038 102.203 72.2605 106.04 71.6705 109.137C71.0805 112.233 72.5538 116.363 73.2938 117.393C73.2938 117.393 69.6071 124.47 73.5871 130.077C73.5871 130.077 71.4038 133.277 71.5238 135.68C71.6438 138.083 72.8505 146.003 86.5638 146.003C100.277 146.003 103.524 135.827 103.374 128.897C103.374 128.897 108.24 122.407 103.374 115.773C103.374 115.773 105.734 107.22 102.194 103.83L96.5905 101.617L96.5938 101.613Z" fill="#F68DFE"/>
<path d="M92.4668 116.95C92.4668 116.95 94.2368 126.386 92.0234 130.516C92.0234 130.516 101.167 130.073 103.377 128.893C103.377 128.893 107.947 121.817 103.377 115.77C103.377 115.77 95.7101 117.393 92.4634 116.95H92.4668Z" fill="#FED607"/>
<path d="M36.1337 148.654H90.6971C90.6971 148.654 95.8571 147.62 95.7104 144.084C95.7104 144.084 91.1404 145.707 85.2404 145.707C79.3404 145.707 70.7904 142.464 71.3771 136.564C71.9637 130.664 73.5904 130.074 73.5904 130.074C73.5904 130.074 69.4604 126.24 73.2971 117.39C73.2971 117.39 69.3171 112.82 72.2637 107.067C75.2137 101.317 81.7004 101.61 83.4704 101.907C85.2404 102.2 90.6971 104.56 92.9071 104.56C95.1171 104.56 96.5937 104.414 96.5937 104.414V8.50684C96.5937 8.50684 95.7104 1.57684 90.1037 1.57684H24.9271C24.9271 1.57684 17.9971 2.02018 17.9971 8.80351V114.297C17.9971 114.297 24.3371 108.25 26.6971 105.3C29.0571 102.35 34.9537 95.7135 42.1804 97.7802C49.4071 99.8468 51.0271 107.367 49.4071 111.054C47.7871 114.74 47.6371 118.574 41.2971 122.997C34.9571 127.42 29.6471 130.074 30.8271 136.27C30.8271 136.27 35.5471 142.76 36.1371 148.657L36.1337 148.654Z" fill="#FF7101"/>
<path d="M23.5033 109.417V11.5H91.19V104.697L85.88 103.073C85.88 103.073 82 101 77.5 102.5C74.2567 104.42 72.89 105.163 72.3133 108.383C71.74 111.603 71.5 114 71.5 114L73.5 117.5C73.5 117.5 71.5 120.5 71.5 123.5C71.5 126.5 73.5 130.5 73.5 130.5L71.5 134.5L71.9821 139H33C33 139 30 137.5 31 132.5C32 127.5 43 123.5 47 117.5C48 115.313 53.88 104.843 45.3267 99.6833C36.7733 94.5233 32.5133 99.9267 27.5 104.5L23.5 109.417H23.5033Z" fill="#FFF2B2"/>
<path d="M33 139H71.5" stroke="#002140" stroke-linecap="round" stroke-linejoin="round"/>
<path d="M1.80704 171.523C0.740374 172.693 2.65704 187.733 4.42704 188.913C15.6337 191.717 34.067 190.977 50.5837 186.85C50.5837 186.85 48.667 173.137 48.3704 170.187C48.3704 170.187 39.0804 173.43 31.117 173.873C23.1537 174.317 7.81704 173.283 1.80371 171.523H1.80704Z" fill="#FED607"/>
<path d="M101.46 122.7L99.1003 119.603L96.7437 122.85L98.807 126.24L101.46 122.7Z" fill="#FFF2B2"/>
<path d="M104.707 117.54C104.707 117.54 106.18 122.11 105.15 125.06L110.31 128.453H115.47L117.24 125.8V117.69L115.47 114.447H110.014L104.704 117.543L104.707 117.54Z" fill="#FFFAF0"/>
<path d="M101.387 102.94C101.387 102.94 99.9134 94.9034 101.24 85.8267C100.46 85.8167 96.8168 85.7601 96.8168 85.7601L96.5234 101.097L101.39 102.94H101.387Z" fill="#002140"/>
<path d="M18.1006 114.147V8.29667C18.1006 4.54333 21.1439 1.5 24.8973 1.5H89.6106C93.3639 1.5 96.4072 4.54333 96.4072 8.29667V104.53" stroke="#002140" stroke-linecap="round" stroke-linejoin="round"/>
<path d="M96.027 144.103C95.1036 146.76 92.577 148.67 89.607 148.67H36.0703" stroke="#002140" stroke-linecap="round" stroke-linejoin="round"/>
<path d="M90.8506 104.163V11.4567H23.3806V108.88" stroke="#002140" stroke-linecap="round" stroke-linejoin="round"/>
<path d="M103.314 115.81C90.4836 119.387 86.7469 114.327 81.8703 114.173C76.9936 114.023 71.9169 116.487 71.5436 123.667C71.4036 126.36 72.2036 128.5 73.6269 130.12" stroke="#002140" stroke-linecap="round" stroke-linejoin="round"/>
<path d="M103.314 128.973C90.484 132.55 86.9474 127.66 80.8074 127.78C74.6674 127.903 70.3274 131.826 71.644 138.08C72.524 142.256 76.9374 144.42 80.7507 145.266C85.7274 146.373 103.754 148.253 103.314 128.973Z" stroke="#002140" stroke-linecap="round" stroke-linejoin="round"/>
<path d="M98.7507 104.3C89.494 105.657 86.1107 101.81 81.8673 101.68C76.9907 101.53 71.914 103.993 71.5407 111.173C71.4007 113.867 72.2007 116.007 73.624 117.627" stroke="#002140" stroke-linecap="round" stroke-linejoin="round"/>
<path d="M103.167 128.79C103.167 128.79 108.327 123.113 103.313 115.643C103.313 115.643 106.46 106.437 102.16 103.61" stroke="#002140" stroke-linecap="round" stroke-linejoin="round"/>
<path d="M103.167 128.79C102.967 128.89 102.77 128.987 102.577 129.08" stroke="#002140" stroke-linecap="round" stroke-linejoin="round"/>
<path d="M81.084 149.14C81.084 149.14 72.9007 164.18 49.894 163.74" stroke="#002140" stroke-linecap="round" stroke-linejoin="round"/>
<path d="M4.21702 153.12C4.21702 153.12 -1.76298 170.627 4.43035 188.913" stroke="#002140" stroke-linecap="round" stroke-linejoin="round"/>
<path d="M4.31363 152.947C4.31363 152.947 0.73696 144.467 3.51029 132.35C6.28363 120.237 15.9503 117.68 21.767 111.093C27.5836 104.507 34.597 93.2499 44.4103 98.7265C51.5936 102.737 50.7636 111.067 46.8903 117.187C44.9536 120.247 42.397 122.723 39.3336 124.637C36.1736 126.61 32.2403 128.307 31.0536 132.167C30.7703 133.087 30.667 134.057 30.667 135.013C30.3203 137.49 39.0203 142.947 35.0403 157.547" stroke="#002140" stroke-linecap="round" stroke-linejoin="round"/>
<path d="M96.4038 85.7301C100.954 86.4668 103.24 84.5134 109.25 84.6068C115.26 84.6968 118.504 89.8601 117.914 95.6101C117.324 101.36 109.36 107.997 96.6805 101.36" stroke="#002140" stroke-linecap="round" stroke-linejoin="round"/>
<path d="M49.5271 163.737C49.5271 163.737 46.4671 167.94 50.8904 186.74" stroke="#002140" stroke-linecap="round" stroke-linejoin="round"/>
<path d="M1.84058 171.363C19.6872 175.423 36.9939 173.833 48.2339 170.373" stroke="#002140" stroke-linecap="round" stroke-linejoin="round"/>
<path d="M4.43042 188.913C18.2938 191.677 37.5371 190.737 50.8904 186.743" stroke="#002140" stroke-linecap="round" stroke-linejoin="round"/>
<path d="M24.7871 174.023C24.7871 174.023 31.3138 182.65 24.7871 190.28" stroke="#002140" stroke-linecap="round" stroke-linejoin="round"/>
<path d="M11.6838 173.303C11.6838 173.303 18.2105 181.93 11.6838 189.56" stroke="#002140" stroke-linecap="round" stroke-linejoin="round"/>
<path d="M37.397 173.25C37.397 173.25 43.9236 181.877 37.397 189.507" stroke="#002140" stroke-linecap="round" stroke-linejoin="round"/>
<path d="M20.7803 183.993C21.9107 183.993 22.827 183.077 22.827 181.947C22.827 180.816 21.9107 179.9 20.7803 179.9C19.65 179.9 18.7336 180.816 18.7336 181.947C18.7336 183.077 19.65 183.993 20.7803 183.993Z" fill="#002140"/>
<path d="M7.84037 183.107C8.97071 183.107 9.88703 182.19 9.88703 181.06C9.88703 179.93 8.97071 179.013 7.84037 179.013C6.71002 179.013 5.7937 179.93 5.7937 181.06C5.7937 182.19 6.71002 183.107 7.84037 183.107Z" fill="#002140"/>
<path d="M33.4139 183.48C34.5442 183.48 35.4605 182.564 35.4605 181.433C35.4605 180.303 34.5442 179.387 33.4139 179.387C32.2835 179.387 31.3672 180.303 31.3672 181.433C31.3672 182.564 32.2835 183.48 33.4139 183.48Z" fill="#002140"/>
<path d="M44.9803 181.977C46.1106 181.977 47.0269 181.06 47.0269 179.93C47.0269 178.8 46.1106 177.883 44.9803 177.883C43.8499 177.883 42.9336 178.8 42.9336 179.93C42.9336 181.06 43.8499 181.977 44.9803 181.977Z" fill="#002140"/>
<path d="M92.2539 117.14C92.2539 117.14 94.4672 121.86 92.2539 130.117" stroke="#002140" stroke-linecap="round" stroke-linejoin="round"/>
<path d="M99.0374 119.35L96.5308 122.743L99.1841 126.133L101.691 122.743L99.0374 119.35Z" stroke="#002140" stroke-linecap="round" stroke-linejoin="round"/>
<path d="M104.641 118.023L110.244 114.337H115.407L117.324 117.433V126.133L115.407 128.2H110.687L105.231 124.807" stroke="#002140" stroke-linecap="round" stroke-linejoin="round"/>
<path d="M110.833 114.337V128.2" stroke="#002140" stroke-linecap="round" stroke-linejoin="round"/>
<path d="M110.76 118.17L105.6 121.12L110.54 124.66" stroke="#002140" stroke-linecap="round" stroke-linejoin="round"/>
<path d="M115.184 114.707L111.204 118.32L117.027 120.827L111.13 124.143L115.33 127.683" stroke="#002140" stroke-linecap="round" stroke-linejoin="round"/>
<path d="M57.4313 47.8483V51.7009C57.4313 51.7009 44.6283 50.5558 42.2346 65.7525C42.2346 65.7525 41.4033 81.0527 57.2243 81.8872V85.426C57.2243 85.426 38.9029 84.5946 38.4888 66.8976C38.4888 55.1361 47.96 48.4727 57.4345 47.8483H57.4313Z" fill="#F25730"/>
<path d="M56.7038 47.8483V51.7009C56.7038 51.7009 69.5068 50.5558 71.9005 65.7525C71.9005 65.7525 72.7318 81.0527 56.9108 81.8872V85.426C56.9108 85.426 75.2322 84.5946 75.6463 66.8976C75.6463 55.1361 66.175 48.4727 56.7006 47.8483H56.7038Z" fill="#F25730"/>
<path fill-rule="evenodd" clip-rule="evenodd" d="M67.137 79.7059L43.137 55.7059L45.9218 53.3529L69.7058 77.137L67.137 79.7059Z" fill="#F25730"/>
<path d="M57.1677 85.4166C67.47 85.4166 75.8216 77.0649 75.8216 66.7626C75.8216 56.4603 67.47 48.1087 57.1677 48.1087C46.8654 48.1087 38.5138 56.4603 38.5138 66.7626C38.5138 77.0649 46.8654 85.4166 57.1677 85.4166Z" stroke="#002140" stroke-width="0.99999" stroke-linecap="round" stroke-linejoin="round"/>
<path d="M66.1996 78.769L66.5005 79.1684C66.6161 79.0813 66.6883 78.9483 66.6984 78.8039C66.7085 78.6595 66.6555 78.5179 66.5531 78.4155L66.1996 78.769ZM57.1683 81.7866V82.2866H57.1683L57.1683 81.7866ZM42.1439 66.7622L41.6439 66.7622V66.7622H42.1439ZM45.1615 57.73L45.5151 57.3764C45.4127 57.2741 45.271 57.2211 45.1266 57.2312C44.9822 57.2413 44.8493 57.3135 44.7622 57.4291L45.1615 57.73ZM57.1683 51.7388L57.1683 51.2388H57.1683V51.7388ZM72.1918 66.7622H72.6918V66.7622L72.1918 66.7622ZM68.8177 76.2485L68.4642 76.6021C68.5642 76.7021 68.7019 76.7551 68.8431 76.7479C68.9843 76.7407 69.1159 76.6741 69.2053 76.5645L68.8177 76.2485ZM47.681 55.1118L47.3651 54.7243C47.2555 54.8136 47.1888 54.9452 47.1817 55.0865C47.1745 55.2277 47.2275 55.3654 47.3275 55.4654L47.681 55.1118ZM66.1996 78.769L65.8987 78.3697C63.4684 80.2008 60.4461 81.2865 57.1683 81.2866L57.1683 81.7866L57.1683 82.2866C60.6707 82.2865 63.9029 81.1255 66.5005 79.1684L66.1996 78.769ZM57.1683 81.7866V81.2866C49.1469 81.2866 42.6439 74.7837 42.6439 66.7622H42.1439H41.6439C41.6439 75.336 48.5946 82.2866 57.1683 82.2866V81.7866ZM42.1439 66.7622L42.6439 66.7622C42.644 63.4842 43.7295 60.4612 45.5608 58.0309L45.1615 57.73L44.7622 57.4291C42.8047 60.0268 41.644 63.2596 41.6439 66.7622L42.1439 66.7622ZM45.1615 57.73L44.8079 58.0835L65.846 79.1226L66.1996 78.769L66.5531 78.4155L45.5151 57.3764L45.1615 57.73ZM57.1683 51.7388L57.1683 52.2388C65.1894 52.239 71.6915 58.7411 71.6918 66.7622L72.1918 66.7622L72.6918 66.7622C72.6915 58.1888 65.7417 51.239 57.1683 51.2388L57.1683 51.7388ZM72.1918 66.7622H71.6918C71.6918 70.2405 70.469 73.4317 68.4302 75.9326L68.8177 76.2485L69.2053 76.5645C71.3841 73.8918 72.6918 70.4792 72.6918 66.7622H72.1918ZM68.8177 76.2485L69.1713 75.895L48.0346 54.7583L47.681 55.1118L47.3275 55.4654L68.4642 76.6021L68.8177 76.2485ZM47.681 55.1118L47.997 55.4993C50.4977 53.4606 53.6899 52.2388 57.1683 52.2388V51.7388V51.2388C53.4514 51.2388 50.0379 52.5453 47.3651 54.7243L47.681 55.1118Z" fill="#002140"/>
</g>
<defs>
<clipPath id="clip0_257_9177">
<rect width="118" height="191" fill="white" transform="translate(0.5 0.5)"/>
</clipPath>
</defs>
</svg>

<svg xmlns="http://www.w3.org/2000/svg" width="119" height="192" fill="none" viewBox="0 0 119 192"><g clip-path="url(#a)"><path fill="#f68dfe" d="M1.84 171.363s.377-15.776 2.737-18.576c0 0-7.227-12.387 1.623-27.577 0 0 5.014-5.75 7.374-7.52s9.733-7.667 13.123-12.387c3.393-4.72 10.323-10.913 18.433-6.046 8.11 4.866 3.244 17.106 1.327 19.17s-5.457 5.603-7.227 6.49c-1.77.883-9.88 4.866-8.406 11.353 0 0 4.866 7.52 5.31 12.387H81.11s-5.16 9.88-14.6 12.24c-9.436 2.36-17.106 2.653-17.106 2.653l-1.034 6.637s-15.336 5.75-29.64 4.13c-14.303-1.624-16.893-2.954-16.893-2.954zm94.754-85.676v15.926s7.816 2.804 11.65 2.507c3.833-.293 10.47-3.98 9.88-11.65-.59-7.667-8.7-8.257-11.504-7.963-2.803.293-7.816 2.213-10.026 1.18"/><path fill="#f68dfe" d="M96.594 101.613v2.804s-3.097.146-5.457-.147-7.373-2.653-11.503-2.36-7.374 4.13-7.963 7.227c-.59 3.096.883 7.226 1.623 8.256 0 0-3.687 7.077.293 12.684 0 0-2.183 3.2-2.063 5.603s1.326 10.323 15.04 10.323 16.96-10.176 16.81-17.106c0 0 4.866-6.49 0-13.124 0 0 2.36-8.553-1.18-11.943l-5.603-2.213z"/><path fill="#fed607" d="M92.467 116.95s1.77 9.436-.444 13.566c0 0 9.144-.443 11.354-1.623 0 0 4.57-7.076 0-13.123 0 0-7.667 1.623-10.914 1.18z"/><path fill="#ff7101" d="M36.134 148.654h54.563s5.16-1.034 5.013-4.57c0 0-4.57 1.623-10.47 1.623s-14.45-3.243-13.863-9.143 2.213-6.49 2.213-6.49-4.13-3.834-.293-12.684c0 0-3.98-4.57-1.033-10.323 2.95-5.75 9.436-5.457 11.206-5.16 1.77.293 7.227 2.653 9.437 2.653s3.687-.146 3.687-.146V8.507s-.884-6.93-6.49-6.93H24.927s-6.93.443-6.93 7.227v105.493s6.34-6.047 8.7-8.997 8.257-9.586 15.483-7.52 8.847 9.587 7.227 13.274-1.77 7.52-8.11 11.943-11.65 7.077-10.47 13.273c0 0 4.72 6.49 5.31 12.387z"/><path fill="#fff2b2" d="M23.503 109.417V11.5H91.19v93.197l-5.31-1.624S82 101 77.5 102.5c-3.243 1.92-4.61 2.663-5.187 5.883-.573 3.22-.813 5.617-.813 5.617l2 3.5s-2 3-2 6 2 7 2 7l-2 4 .482 4.5H33s-3-1.5-2-6.5 12-9 16-15c1-2.187 6.88-12.657-1.673-17.817s-12.814.244-17.827 4.817l-4 4.917z"/><path stroke="#002140" stroke-linecap="round" stroke-linejoin="round" d="M33 139h38.5"/><path fill="#fed607" d="M1.807 171.523c-1.067 1.17.85 16.21 2.62 17.39 11.207 2.804 29.64 2.064 46.157-2.063 0 0-1.917-13.713-2.214-16.663 0 0-9.29 3.243-17.253 3.686s-23.3-.59-29.313-2.35z"/><path fill="#fff2b2" d="m101.46 122.7-2.36-3.097-2.356 3.247 2.063 3.39z"/><path fill="#fffaf0" d="M104.707 117.54s1.473 4.57.443 7.52l5.16 3.393h5.16l1.77-2.653v-8.11l-1.77-3.243h-5.456l-5.31 3.096z"/><path fill="#002140" d="M101.387 102.94s-1.474-8.037-.147-17.113c-.78-.01-4.423-.067-4.423-.067l-.294 15.337 4.867 1.843z"/><path stroke="#002140" stroke-linecap="round" stroke-linejoin="round" d="M18.1 114.147V8.297A6.797 6.797 0 0 1 24.898 1.5h64.714a6.797 6.797 0 0 1 6.796 6.797v96.233m-.381 39.573a6.8 6.8 0 0 1-6.42 4.567H36.07"/><path stroke="#002140" stroke-linecap="round" stroke-linejoin="round" d="M90.85 104.163V11.457H23.38v97.423m79.934 6.93c-12.83 3.577-16.567-1.483-21.444-1.637-4.876-.15-9.953 2.314-10.326 9.494-.14 2.693.66 4.833 2.083 6.453"/><path stroke="#002140" stroke-linecap="round" stroke-linejoin="round" d="M103.314 128.973c-12.83 3.577-16.367-1.313-22.507-1.193-6.14.123-10.48 4.046-9.163 10.3.88 4.176 5.293 6.34 9.107 7.186 4.976 1.107 23.003 2.987 22.563-16.293M98.75 104.3c-9.256 1.357-12.64-2.49-16.883-2.62-4.876-.15-9.953 2.313-10.326 9.493-.14 2.694.66 4.834 2.083 6.454m29.543 11.163s5.16-5.677.146-13.147c0 0 3.147-9.206-1.153-12.033"/><path stroke="#002140" stroke-linecap="round" stroke-linejoin="round" d="M103.167 128.79q-.3.15-.59.29m-21.493 20.06s-8.183 15.04-31.19 14.6M4.217 153.12s-5.98 17.507.213 35.793m-.116-35.966s-3.577-8.48-.804-20.597c2.774-12.113 12.44-14.67 18.257-21.257 5.817-6.586 12.83-17.843 22.643-12.367 7.184 4.011 6.354 12.341 2.48 18.461-1.936 3.06-4.493 5.536-7.556 7.45-3.16 1.973-7.094 3.67-8.28 7.53-.284.92-.387 1.89-.387 2.846-.347 2.477 8.353 7.934 4.373 22.534M96.404 85.73c4.55.737 6.836-1.217 12.846-1.123 6.01.09 9.254 5.253 8.664 11.003s-8.554 12.387-21.234 5.75m-47.153 62.377s-3.06 4.203 1.363 23.003"/><path stroke="#002140" stroke-linecap="round" stroke-linejoin="round" d="M1.84 171.363c17.847 4.06 35.154 2.47 46.394-.99M4.43 188.913c13.864 2.764 33.107 1.824 46.46-2.17"/><path stroke="#002140" stroke-linecap="round" stroke-linejoin="round" d="M24.787 174.023s6.527 8.627 0 16.257m-13.103-16.977s6.527 8.627 0 16.257m25.713-16.31s6.527 8.627 0 16.257"/><path fill="#002140" d="M20.78 183.993a2.046 2.046 0 1 0 .001-4.093 2.046 2.046 0 0 0 0 4.093m-12.941-.886a2.047 2.047 0 1 0 0-4.094 2.047 2.047 0 0 0 0 4.094m25.574.373a2.047 2.047 0 1 0 0-4.093 2.047 2.047 0 0 0 0 4.093m11.566-1.503a2.047 2.047 0 1 0 0-4.094 2.047 2.047 0 0 0 0 4.094"/><path stroke="#002140" stroke-linecap="round" stroke-linejoin="round" d="M92.254 117.14s2.213 4.72 0 12.977m6.783-10.767-2.506 3.393 2.653 3.39 2.507-3.39zm5.604-1.327 5.603-3.686h5.163l1.917 3.096v8.7l-1.917 2.067h-4.72l-5.456-3.393m5.602-10.47V128.2"/><path stroke="#002140" stroke-linecap="round" stroke-linejoin="round" d="m110.76 118.17-5.16 2.95 4.94 3.54m4.644-9.953-3.98 3.613 5.823 2.507-5.897 3.316 4.2 3.54"/><path fill="#f25730" d="M57.431 47.848v3.853s-12.803-1.145-15.196 14.051c0 0-.832 15.3 14.99 16.135v3.539s-18.322-.831-18.736-18.528c0-11.762 9.471-18.425 18.946-19.05z"/><path fill="#f25730" d="M56.704 47.848v3.853S69.507 50.556 71.9 65.752c0 0 .832 15.3-14.99 16.135v3.539s18.322-.831 18.736-18.528c0-11.762-9.471-18.425-18.945-19.05z"/><path fill="#f25730" fill-rule="evenodd" d="m67.137 79.706-24-24 2.785-2.353 23.784 23.784z" clip-rule="evenodd"/><path stroke="#002140" stroke-linecap="round" stroke-linejoin="round" d="M57.168 85.417c10.302 0 18.654-8.352 18.654-18.654 0-10.303-8.352-18.654-18.654-18.654-10.303 0-18.654 8.351-18.654 18.654s8.351 18.654 18.654 18.654"/><path fill="#002140" d="m66.2 78.769.3.4a.5.5 0 0 0 .053-.754zm-9.032 3.018v.5zM42.144 66.762h-.5zm3.017-9.032.354-.354a.5.5 0 0 0-.753.053zm12.007-5.991v-.5zm15.024 15.023h.5zm-3.374 9.487-.354.353a.5.5 0 0 0 .741-.038zM47.68 55.112l-.316-.388a.5.5 0 0 0-.038.741zM66.2 78.769l-.301-.4a14.46 14.46 0 0 1-8.73 2.918v1c3.502 0 6.734-1.162 9.332-3.119zm-9.032 3.018v-.5c-8.021 0-14.524-6.503-14.524-14.525h-1c0 8.574 6.95 15.525 15.524 15.525zM42.144 66.762h.5c0-3.278 1.086-6.3 2.917-8.731l-.4-.301-.399-.3a15.46 15.46 0 0 0-3.118 9.332zm3.017-9.032-.353.354 21.038 21.039.354-.354.353-.354-21.038-21.039zm12.007-5.991v.5c8.021 0 14.524 6.502 14.524 14.523h1c0-8.573-6.95-15.523-15.524-15.523zm15.024 15.023h-.5c0 3.478-1.223 6.67-3.262 9.17l.388.317.387.316a15.46 15.46 0 0 0 3.487-9.803zm-3.374 9.487.353-.354-21.136-21.137-.354.354-.353.353 21.136 21.137zM47.68 55.112l.316.387a14.46 14.46 0 0 1 9.171-3.26v-1c-3.717 0-7.13 1.306-9.803 3.485z"/></g><defs><clipPath id="a"><path fill="#fff" d="M.5.5h118v191H.5z"/></clipPath></defs></svg>
